!!!AGN: Motet
!!!SCT: Nugent (1982)
!!!voices: 4
!!!COM: Jachet of Mantua
!!!OTL: Visita, quesumus Domine
**kern	**kern	**kern	**kern
*part4	*part3	*part2	*part1
*staff4	*staff3	*staff2	*staff1
*I"Bassus	*I"Tenor	*I"Altus	*I"Superius
*I'B	*I'T	*I'A	*I'S
*clefF4	*clefGv2	*clefGv2	*clefG2
*k[]	*k[]	*k[]	*k[]
*C:	*C:	*C:	*C:
*M2/1	*M2/1	*M2/1	*M2/1
*met(C|)	*met(C|)	*met(C|)	*met(C|)
!!section: Prima pars: Visita, quesumus Domine
!!!OMD: Prima pars: Visita, quesumus Domine
0r	0r	1E	0r
.	.	2E	.
.	.	2E	.
=1	=1	=1	=1
0r	1r	1.A	0r
.	1E	.	.
.	.	2G	.
=2	=2	=2	=2
0r	2E	1G	0r
.	2E	.	.
.	[1A	[1c	.
=3	=3	=3	=3
1E	2A]	2c]	0r
.	2G	2B	.
2E	1G	1B	.
2E	.	.	.
=4	=4	=4	=4
1.A	1.c	1r	0r
.	.	[1e	.
2G	2B	.	.
=5	=5	=5	=5
1G	1B	2e]	0r
.	.	2d	.
[1F	[1A	1d	.
=6	=6	=6	=6
2F]	2A]	1.c	1r
2E	2G	.	.
[1E	[1G	.	1e
.	.	2B	.
=7	=7	=7	=7
1E]	1G]	1B	2e
.	.	.	2e
1AA	[1c	1r	[1a
=8	=8	=8	=8
1.C	1c]	1E	2a]
.	.	.	2g
.	2r	2E	1g
2C	[2e	2E	.
=9	=9	=9	=9
1.D	2e]	[0A	1.f
.	2d	.	.
.	2d	.	.
2AA	[2c	.	2e
=10	=10	=10	=10
1AA	2c]	1A]	[0e
.	2c	.	.
1E	[1B	1G	.
=11	=11	=11	=11
2E	1B]	1G	0e_
2E	.	.	.
[1A	1r	[1c	.
=12	=12	=12	=12
2A]	1E	2c]	0e]
2G	.	2B	.
1G	2E	2B	.
.	2E	2e	.
=13	=13	=13	=13
1.F	1.A	2c	1r
.	.	2A	.
.	.	2.c	[1cc
2E	2G	.	.
.	.	4d	.
=14	=14	=14	=14
0E	0G	[0e	2cc]
.	.	.	2b
.	.	.	1b
=15	=15	=15	=15
2AA	1.c	1e]	1.a
1A	.	.	.
.	.	2r	.
[2E	2B	[2e	2g
=16	=16	=16	=16
4E]	1.B	2e]	2.g
4F	.	.	.
1G	.	2d	.
.	.	.	4a
.	.	2d	2b
2C	2G	[2c	[2cc
=17	=17	=17	=17
1F	1A	2c]	4cc]
.	.	.	4b
.	.	2d	1a
1E	1B	1e	.
.	.	.	2g#i
=18	=18	=18	=18
0AA	0A	1c	[0a
.	.	2r	.
.	.	[2c	.
=19	=19	=19	=19
2r	0r	2c]	1a]
2AA	.	2c	.
2C	.	2c	1r
2C	.	2c	.
=20	=20	=20	=20
2D	0r	2A	0r
2C	.	2.c	.
1F	.	.	.
.	.	4B	.
.	.	2G	.
=21	=21	=21	=21
1F	2r	1A	1r
.	1c	.	.
[1C	.	[1G	2r
.	2c	.	2e
=22	=22	=22	=22
1C]	2c	1G]	2g
.	2c	.	2g
1r	2A	1r	2a
.	[2c	.	2g
=23	=23	=23	=23
2r	4c]	1r	1cc
.	4B	.	.
1F	4A	.	.
.	4G	.	.
.	[1A	2r	1cc
2F	.	2A	.
=24	=24	=24	=24
2F	0A]	2c	1a
2F	.	2c	.
2D	.	2d	2f
[2F	.	2c	[2a
=25	=25	=25	=25
4F]	2r	1f	4a]
4E	.	.	4g
4D	1A	.	4f
4C	.	.	4e
1D	.	1f	1d
.	4G	.	.
.	4F	.	.
=26	=26	=26	=26
0C	1G	[0e	2r
.	.	.	1g
.	2r	.	.
.	2E	.	2g
=27	=27	=27	=27
1.C	2G	1e]	2g
.	2G	.	2g
.	2A	2r	2e
2C	2G	2E	[2g
=28	=28	=28	=28
2C	1c	2G	4g]
.	.	.	4f
2C	.	2G	4e
.	.	.	4d
2AA	2.c	2A	[1e
[2C	.	2G	.
.	4B	.	.
=29	=29	=29	=29
4C]	4A	1.c	1e]
4BB	4G	.	.
4AA	1G	.	.
4GG	.	.	.
1AA	.	.	1c
.	2F#i	4B	.
.	.	4A	.
=30	=30	=30	=30
[0GG	1G	[0B	0d
.	2r	.	.
.	[2D	.	.
=31	=31	=31	=31
0GG]	2D]	1B]	2r
.	2D	.	2d
.	1G	2r	2d
.	.	2G	[2g
=32	=32	=32	=32
0r	2E	2G	2g]
.	1A	1c	2e
.	.	.	2f
.	2G	2B	2g
=33	=33	=33	=33
0r	1F	2c	1a
.	.	2d	.
.	1E	2.e	2.g
.	.	4d	4f
=34	=34	=34	=34
2r	0r	2e	2g
2D	.	2.f	2.a
1D	.	.	.
.	.	4e	4g
.	.	4d	4f
.	.	4c	4e
=35	=35	=35	=35
1G	2r	1.B	1d
.	2G	.	.
2E	2G	.	2r
[2A	[2c	2A	2e
=36	=36	=36	=36
2A]	2c]	2c	2f
2G	2B	2d	2g
1F	2c	1A	1a
.	2d	.	.
=37	=37	=37	=37
2E	1e	2B	1g
2.C	.	2c	.
.	1e	2G	1cc
4D	.	.	.
4E	.	[2g	.
4F	.	.	.
=38	=38	=38	=38
2G	2d	4g]	2b
.	.	4f	.
2A	2c	4e	1a
.	.	4d	.
1E	1B	1e	.
.	.	.	2g#i
=39	=39	=39	=39
2.A	1A	2r	[0a
.	.	2e	.
4G	.	.	.
2.F	2r	[1f	.
.	2A	.	.
4E	.	.	.
=40	=40	=40	=40
1D	1d	1f]	0a_
1AA	2c	2e	.
.	2e	2c	.
=41	=41	=41	=41
2r	2d	2d	0a]
2AA	2c	2e	.
1D	1d	1f	.
=42	=42	=42	=42
2C	1G	1e	1r
2E	.	.	.
2D	2F	2A	2r
2C	[2G	[2c	2e
=43	=43	=43	=43
1D	2G]	2c]	1f
.	2F	2B	.
2C	2G	1c	2e
[2F	2A	.	2c
=44	=44	=44	=44
2F]	2F	2A	2d
2E	2G	4B	2e
.	.	4c	.
2.D	[1A	1d	1f
4C	.	.	.
=45	=45	=45	=45
2AA	1A]	1c	1.e
2.A	.	.	.
.	2r	2c	.
4G	.	.	.
4F	2A	[2e	[2a
4E	.	.	.
=46	=46	=46	=46
1F	2A	2e]	2a]
.	2A	2d	4g
.	.	.	4f
1E	2B	1e	2g
.	2G	.	2e
=47	=47	=47	=47
1AA	2.c	2.e	2.a
.	4B	4d	4g
2r	4A	4c	4f
.	4G	4B	4e
2A	4F	[2c	[2e
.	4E	.	.
=48	=48	=48	=48
2A	1F	2c]	2e]
2A	.	4B	2d
.	.	4A	.
[1B	[1E	2.G	[1e
.	.	4A	.
=49	=49	=49	=49
2B]	1E]	1B	1e]
2G	.	.	.
2.c	2.A	1r	1r
4B	4G	.	.
=50	=50	=50	=50
2A	2c	2r	0r
2G	2B	2d	.
2F	2A	2d	.
2G	2B	2d	.
=51	=51	=51	=51
1E	1G	2e	1r
.	.	2c	.
[1D	[1A	2.f	2r
.	.	.	2a
.	.	4e	.
=52	=52	=52	=52
2D]	1A]	2d	2a
2AA	.	2c	2a
1r	1E	1B	2b
.	.	.	2g
=53	=53	=53	=53
1r	2r	1A	2.cc
.	1A	.	.
.	.	.	4b
2r	.	1D	2.a
2D	2A	.	.
.	.	.	4g
=54	=54	=54	=54
2D	2A	0r	1f
2D	1B	.	.
[1E	.	.	[1e
.	2G	.	.
=55	=55	=55	=55
2E]	2.c	1r	1e]
2C	.	.	.
.	4B	.	.
2.F	2.A	2r	1r
.	.	2A	.
4E	4G	.	.
=56	=56	=56	=56
2.D	2.F	2A	2r
.	.	2A	2d
4C	4E	.	.
1BB	1D	2B	2d
.	.	2G	2d
=57	=57	=57	=57
1AA	1.A	1c	2e
.	.	.	2c
[1D	.	[1A	[1f
.	[2F	.	.
=58	=58	=58	=58
1D]	2F]	2A]	1f]
.	4G	2B	.
.	4F	.	.
1C	1G	1c	1e
=59	=59	=59	=59
1.c	1A	1.F	1r
.	1r	.	[1cc
2B	.	2G	.
=60	=60	=60	=60
2A	1.F	2A	2cc]
2G	.	2B	2b
2F	.	1c	2a
2E	2G	.	2g
=61	=61	=61	=61
1D	2A	1d	1f
.	2B	.	.
2C	1c	2G	2e
2E	.	[2c	4d
.	.	.	4c
=62	=62	=62	=62
1D	1d	2c]	1f
.	.	2B	.
[1C	[1G	1c	1e
=63	=63	=63	=63
0C]	0G]	1e	1c
.	.	[1g	1e
=64	=64	=64	=64
1C	1E	2g]	1.g
.	.	2f	.
1C	1G	2.e	.
.	.	.	2f
.	.	4d	.
=65	=65	=65	=65
0C	2G	0c	2e
.	2G	.	4d
.	.	.	4c
.	[1G	.	1e
=66	=66	=66	=66
[0GG	1G]	[0B	0d
.	2r	.	.
.	2D	.	.
=67	=67	=67	=67
1GG]	0G	0B]	2r
.	.	.	2d
2r	.	.	1g
2GG	.	.	.
=68	=68	=68	=68
0C	0r	2r	1.g
.	.	2G	.
.	.	[1c	.
.	.	.	2g
=69	=69	=69	=69
1C	0r	2c]	2g
.	.	2c	2e
1r	.	2c	2.a
.	.	2A	.
.	.	.	4g
=70	=70	=70	=70
0r	0r	2.d	4f
.	.	.	4g
.	.	.	2.a
.	.	4c	.
.	.	2B	.
.	.	.	4g
.	.	4A	[2g
.	.	4G	.
=71	=71	=71	=71
2r	0r	1A	2g]
2D	.	.	2f#i
[1G	.	2r	1g
.	.	2G	.
=72	=72	=72	=72
2G]	1r	2d	2r
2G	.	2d	2d
2G	2r	2B	2g
2E	2G	[2e	2g
=73	=73	=73	=73
2.A	1.c	4e]	2e
.	.	4d	.
.	.	4c	1a
4G	.	4B	.
2F	.	[1A	.
4E	2c	.	4g
4D	.	.	4f
=74	=74	=74	=74
2E	2c	2A]	2.g
2E	2B	2G	.
.	.	.	4e
[1D	2.d	1A	4f
.	.	.	4g
.	.	.	[2a
.	4c	.	.
=75	=75	=75	=75
0D]	2B	0d	2a]
.	4A	.	1g
.	4G	.	.
.	2A	.	.
.	2A	.	2f#i
=76	=76	=76	=76
[0GG	1G	1B	[0g
.	2r	2r	.
.	2d	2B	.
=77	=77	=77	=77
1GG]	2B	2d	0g]
.	2B	2d	.
1r	2.c	2.e	.
.	4c	4e	.
=78	=78	=78	=78
1r	2B	2d	2r
.	2A	2c	2e
2r	1G	[1B	[1g
2G	.	.	.
=79	=79	=79	=79
2E	0r	1B]	2g]
2E	.	.	2g
2.F	.	2r	2.a
.	.	2d	.
4F	.	.	4a
=80	=80	=80	=80
2E	2r	2B	2g
2D	2D	2B	2f
2.C	[1G	2.c	1e
4D	.	4c	.
=81	=81	=81	=81
1E	2G]	2B	2r
.	2G	2B	2g
1AA	[1A	2A	2e
.	.	2c	2e
=82	=82	=82	=82
1D	2A]	1d	2.f
.	2A	.	.
.	.	.	4f
2r	2G	2B	2e
2D	2F	2A	2d
=83	=83	=83	=83
2G	1E	1B	1e
2G	.	.	.
2.A	1c	2A	2.e
.	.	[2e	.
4A	.	.	4f
=84	=84	=84	=84
2G	2B	2e]	2g
2F	2A	2d	1a
1E	1B	[1e	.
.	.	.	2g#i
=85	=85	=85	=85
[0AA	1A	2e]	[0a
.	.	1c	.
.	2r	.	.
.	2e	4B	.
.	.	4A	.
=86	=86	=86	=86
1AA]	2e	1c	0a]
.	2e	.	.
2r	2d	2f	.
2A	2c	2e	.
=87	=87	=87	=87
2A	1.e	1c	0r
2A	.	.	.
2G	.	1r	.
2F	2d	.	.
=88	=88	=88	=88
1.A	1.c	2r	0r
.	.	2e	.
.	.	2e	.
2G	2B	2e	.
=89	=89	=89	=89
1F	1A	2d	0r
.	.	2c	.
[1C	2G	[1e	.
.	2c	.	.
=90	=90	=90	=90
1C]	2c	1e]	1r
.	2c	.	.
2r	2B	2d	2r
2F	2A	[2c	2a
=91	=91	=91	=91
2F	2.c	2c]	2a
2F	.	4B	2a
.	4d	4A	.
2E	2e	2B	2g
2D	[2A	2d	2f
=92	=92	=92	=92
1.F	4A]	2c	1.a
.	4B	.	.
.	2c	2.A	.
.	2F	.	.
.	.	4B	.
2E	2G	2c	2g
=93	=93	=93	=93
0D	1A	2.d	2.f
.	.	4e	4e
.	2r	1f	1d
.	2A	.	.
=94	=94	=94	=94
2.AA	2A	2.e	1c
.	2A	.	.
4BB	.	4d	.
2C	2G	4c	2r
.	.	4B	.
[2D	2F	2A	[2f
=95	=95	=95	=95
4D]	1.A	2r	2f]
4E	.	.	.
1F	.	2c	2f
.	.	2c	2f
2C	2G	2c	2e
=96	=96	=96	=96
1D	2.F	2B	2d
.	.	2A	2.f
.	8EL	.	.
.	8DJ	.	.
2AA	[1A	[1c	.
.	.	.	4e
[2A	.	.	[2f
=97	=97	=97	=97
2A]	2A]	2c]	4f]
.	.	.	4e
2E	2G	2B	1e
1F	1A	1A	.
.	.	.	2d
=98	=98	=98	=98
1.E	1B	1G	0e
.	2G	2r	.
[2AA	2c	2A	.
=99	=99	=99	=99
4AA]	2c	2A	1r
4BB	.	.	.
4C	2c	2A	.
4D	.	.	.
2E	2B	2G	1e
2AA	2A	2E	.
=100	=100	=100	=100
2r	1.c	1A	[0el
1AA	.	.	.
.	.	2A	.
2GG	2B	2B	.
=101	=101	=101	=101
0AA	0A	0c	0e_
=102	=102	=102	=102
00El	00Gl	00Bl	00e]
==	==	==	==
*-	*-	*-	*-
!!!system-decoration: [*]
!!!RDF**kern: i = editorial accidental
!!!RDF**kern: l = terminal long
!!!ENC: Benjamin Ory
!!!END: 2021/6/18
!!!EED: Benjamin Ory
!!!EEV: 2021/06/18
!!!YEC: Copyright 2021 Benjamin Ory, All Rights Reserved
!!!ONB: Translated from MusicXML on 2021/06/18